places/64/folder-activities.svg

<?xml version="1.0" encoding="UTF-8"?>
<!-- Created with Inkscape (http://www.inkscape.org/) -->
<svg width="64" height="64" version="1.1" xmlns="http://www.w3.org/2000/svg" xmlns:cc="http://creativecommons.org/ns#" xmlns:dc="http://purl.org/dc/elements/1.1/" xmlns:rdf="http://www.w3.org/1999/02/22-rdf-syntax-ns#" xmlns:xlink="http://www.w3.org/1999/xlink">
	<defs>
		<linearGradient id="c" x1="-5" x2="-5" y1="64" y2="14" gradientUnits="userSpaceOnUse">
			<stop stop-color="#f43f66" stop-opacity=".018868" offset="0"/>
			<stop stop-color="#f4ae3f" stop-opacity=".47025" offset="1"/>
		</linearGradient>
		<radialGradient id="b" cx="30.107" cy="50.318" r="30.5" gradientTransform="matrix(2.7541 -1.4218e-7 8.3652e-8 2.7869 -52.917 -81.23)" gradientUnits="userSpaceOnUse">
			<stop stop-color="#9e1423" stop-opacity=".12917" offset="0"/>
			<stop stop-color="#f4405b" stop-opacity=".023222" offset=".54"/>
			<stop stop-color="#f43f6d" stop-opacity=".169" offset="1"/>
		</radialGradient>
		<linearGradient id="d" x1="53" x2="53" y1="17" y2="15" gradientUnits="userSpaceOnUse">
			<stop stop-color="#dad8ce" offset="0"/>
			<stop stop-color="#ebebeb" offset="1"/>
		</linearGradient>
		<linearGradient id="f" x1="32.559" x2="33.542" y1="15.559" y2="14.542" gradientUnits="userSpaceOnUse">
			<stop stop-color="#37321c" stop-opacity=".15675" offset="0"/>
			<stop stop-color="#6d5524" stop-opacity="0" offset="1"/>
		</linearGradient>
		<radialGradient id="a" cx="33.466" cy="2.1992" r="30.5" gradientTransform="matrix(-1.0283 0 0 -.55738 67.779 1.2258)" gradientUnits="userSpaceOnUse">
			<stop stop-color="#668cbb" offset="0"/>
			<stop stop-color="#668cbb" offset="1"/>
		</radialGradient>
		<linearGradient id="e" x1="61" x2="60" y1="17" gradientUnits="userSpaceOnUse">
			<stop stop-color="#3e4d60" stop-opacity=".72157" offset="0"/>
			<stop stop-color="#393b49" stop-opacity=".2656" offset="1"/>
		</linearGradient>
	</defs>
	<metadata>
		<rdf:RDF>
			<cc:Work rdf:about="">
				<dc:format>image/svg+xml</dc:format>
				<dc:type rdf:resource="http://purl.org/dc/dcmitype/StillImage"/>
				<dc:title/>
			</cc:Work>
		</rdf:RDF>
	</metadata>
	<g>
		<path d="m3 6-1e-7 58 57-1e-6 4-4v-59l-1-1h-26l-5 5-28 1e-7z" color="#000000" fill="url(#a)"/>
		<path d="m3 6-1e-7 58 57-1e-6 4-4v-59l-1-1h-26l-5 5-28 1e-7z" color="#000000" fill="url(#e)"/>
		<path d="m58 13v51h2l4-4v-59l-1-1v18z" fill="#002812" fill-opacity=".12482"/>
	</g>
	<g>
		<path d="m7 13h51v31h-51z" fill="url(#d)"/>
		<path d="m30 13 4 4h2l-4-4z" color="#000000" fill="url(#f)"/>
	</g>
	<g>
		<path d="m0 13v50l1 1h59l1-1v-45l-1-1-26 1e-6 -5-5-28-1e-6z" color="#000000" fill="#f4ae3f"/>
		<path d="m0 13v50l1 1h59l1-1v-45l-1-1-26 1e-6 -5-5-28-1e-6z" color="#000000" fill="url(#c)"/>
		<path d="m0 13v50l1 1h59l1-1v-45l-1-1-26 1e-6 -5-5-28-1e-6z" color="#000000" fill="url(#b)"/>
	</g>
	<path d="m5 26v1 19 1h1 2v-2h-1v-17h17v17h-13-1v1 3 1h1 17 1v-1-11h1v13h-15v2h16 1v-1-15-1h-1-3-1v1 11h-15v-1h13 1v-1-19-1h-1-19z" color="#000000" fill="#3e566a" fill-opacity=".85196" style="paint-order:normal;text-decoration-line:none;text-indent:0;text-transform:none"/>
</svg>

<?xml version="1.0" encoding="UTF-8" standalone="no"?>
<!-- Created with Inkscape (http://www.inkscape.org/) -->

<svg
   xmlns:dc="http://purl.org/dc/elements/1.1/"
   xmlns:cc="http://creativecommons.org/ns#"
   xmlns:rdf="http://www.w3.org/1999/02/22-rdf-syntax-ns#"
   xmlns:svg="http://www.w3.org/2000/svg"
   xmlns="http://www.w3.org/2000/svg"
   xmlns:xlink="http://www.w3.org/1999/xlink"
   xmlns:sodipodi="http://sodipodi.sourceforge.net/DTD/sodipodi-0.dtd"
   xmlns:inkscape="http://www.inkscape.org/namespaces/inkscape"
   id="svg13094"
   height="64"
   width="64"
   version="1.1"
   inkscape:version="0.92.2 5c3e80d, 2017-08-06"
   sodipodi:docname="folder-activities.svg"
   inkscape:export-filename="folder.png"
   inkscape:export-xdpi="90"
   inkscape:export-ydpi="90">
  <sodipodi:namedview
     pagecolor="#ffffff"
     bordercolor="#666666"
     borderopacity="1"
     objecttolerance="10"
     gridtolerance="10"
     guidetolerance="10"
     inkscape:pageopacity="0"
     inkscape:pageshadow="2"
     inkscape:window-width="1920"
     inkscape:window-height="1022"
     id="namedview46"
     showgrid="true"
     inkscape:snap-bbox="true"
     inkscape:bbox-paths="true"
     inkscape:bbox-nodes="true"
     inkscape:snap-bbox-edge-midpoints="true"
     inkscape:snap-bbox-midpoints="true"
     inkscape:snap-nodes="true"
     inkscape:object-paths="true"
     inkscape:snap-intersection-paths="true"
     inkscape:object-nodes="true"
     inkscape:snap-smooth-nodes="true"
     inkscape:snap-midpoints="true"
     inkscape:snap-object-midpoints="true"
     inkscape:snap-center="true"
     fit-margin-top="0"
     fit-margin-left="0"
     fit-margin-right="0"
     fit-margin-bottom="0"
     inkscape:zoom="14.75"
     inkscape:cx="32.610541"
     inkscape:cy="27.601252"
     inkscape:window-x="-5"
     inkscape:window-y="23"
     inkscape:window-maximized="1"
     inkscape:current-layer="svg13094"
     showguides="true"
     inkscape:guide-bbox="true"
     inkscape:snap-page="true"
     inkscape:snap-global="true">
    <inkscape:grid
       type="xygrid"
       id="grid3023"
       empspacing="5"
       visible="true"
       enabled="true"
       snapvisiblegridlinesonly="true"
       originx="-80"
       originy="-75"
       spacingx="1"
       spacingy="1" />
  </sodipodi:namedview>
  <defs
     id="defs11">
    <linearGradient
       inkscape:collect="always"
       xlink:href="#linearGradient873"
       id="linearGradient883"
       gradientUnits="userSpaceOnUse"
       x1="-5"
       y1="64"
       x2="-5"
       y2="14" />
    <linearGradient
       inkscape:collect="always"
       id="linearGradient873">
      <stop
         style="stop-color:#f43f66;stop-opacity:0.01886792"
         offset="0"
         id="stop869" />
      <stop
         style="stop-color:#f4ae3f;stop-opacity:0.47024673"
         offset="1"
         id="stop871" />
    </linearGradient>
    <radialGradient
       inkscape:collect="always"
       xlink:href="#linearGradient823"
       id="radialGradient825"
       cx="30.106619"
       cy="50.317799"
       fx="30.106619"
       fy="50.317799"
       r="30.5"
       gradientTransform="matrix(2.7540984,-1.4217667e-7,8.36519e-8,2.7868852,-52.916593,-81.229925)"
       gradientUnits="userSpaceOnUse" />
    <linearGradient
       inkscape:collect="always"
       id="linearGradient823">
      <stop
         style="stop-color:#9e1423;stop-opacity:0.12917271"
         offset="0"
         id="stop819" />
      <stop
         id="stop827"
         offset="0.54000002"
         style="stop-color:#f4405b;stop-opacity:0.02322206" />
      <stop
         style="stop-color:#f43f6d;stop-opacity:0.169"
         offset="1"
         id="stop821" />
    </linearGradient>
    <linearGradient
       inkscape:collect="always"
       xlink:href="#linearGradient865"
       id="linearGradient867"
       x1="53"
       y1="17"
       x2="53"
       y2="15"
       gradientUnits="userSpaceOnUse" />
    <linearGradient
       inkscape:collect="always"
       id="linearGradient865">
      <stop
         style="stop-color:#dad8ce;stop-opacity:1"
         offset="0"
         id="stop861" />
      <stop
         style="stop-color:#ebebeb;stop-opacity:1"
         offset="1"
         id="stop863" />
    </linearGradient>
    <linearGradient
       inkscape:collect="always"
       xlink:href="#linearGradient1138"
       id="linearGradient1132"
       x1="32.559322"
       y1="15.559322"
       x2="33.542374"
       y2="14.542373"
       gradientUnits="userSpaceOnUse" />
    <linearGradient
       id="linearGradient1138"
       inkscape:collect="always">
      <stop
         id="stop1134"
         offset="0"
         style="stop-color:#37321c;stop-opacity:0.15674891" />
      <stop
         id="stop1136"
         offset="1"
         style="stop-color:#6d5524;stop-opacity:0" />
    </linearGradient>
    <radialGradient
       inkscape:collect="always"
       xlink:href="#linearGradient835"
       id="radialGradient841"
       gradientUnits="userSpaceOnUse"
       gradientTransform="matrix(-1.0283412,0,0,-0.55737705,67.778836,1.2257719)"
       cx="33.465961"
       cy="2.1991789"
       fx="33.465961"
       fy="2.1991789"
       r="30.5" />
    <linearGradient
       inkscape:collect="always"
       id="linearGradient835">
      <stop
         style="stop-color:#668cbb;stop-opacity:1"
         offset="0"
         id="stop831" />
      <stop
         style="stop-color:#668cbb;stop-opacity:1"
         offset="1"
         id="stop833" />
    </linearGradient>
    <linearGradient
       inkscape:collect="always"
       xlink:href="#linearGradient855"
       id="linearGradient857"
       x1="61"
       y1="17"
       x2="60"
       y2="0"
       gradientUnits="userSpaceOnUse" />
    <linearGradient
       inkscape:collect="always"
       id="linearGradient855">
      <stop
         style="stop-color:#3e4d60;stop-opacity:0.72156864"
         offset="0"
         id="stop851" />
      <stop
         style="stop-color:#393b49;stop-opacity:0.26560232"
         offset="1"
         id="stop853" />
    </linearGradient>
  </defs>
  <metadata
     id="metadata13099">
    <rdf:RDF>
      <cc:Work
         rdf:about="">
        <dc:format>image/svg+xml</dc:format>
        <dc:type
           rdf:resource="http://purl.org/dc/dcmitype/StillImage" />
        <dc:title />
      </cc:Work>
    </rdf:RDF>
  </metadata>
  <g
     id="g1240">
    <path
       style="color:#000000;display:inline;overflow:visible;visibility:visible;fill:url(#radialGradient841);fill-opacity:1;fill-rule:nonzero;stroke:none;marker:none;enable-background:accumulate"
       d="m 3,6 -10e-8,58.000001 L 60,64 64,60 V 1 L 63,0 H 37 L 32,4.9999999 4,5 Z"
       id="path839"
       inkscape:connector-curvature="0"
       sodipodi:nodetypes="cccccccccc" />
    <path
       sodipodi:nodetypes="cccccccccc"
       inkscape:connector-curvature="0"
       id="path3833-98"
       d="m 3,6 -10e-8,58.000001 L 60,64 64,60 V 1 L 63,0 H 37 L 32,4.9999999 4,5 Z"
       style="color:#000000;display:inline;overflow:visible;visibility:visible;fill:url(#linearGradient857);fill-opacity:1;fill-rule:nonzero;stroke:none;marker:none;enable-background:accumulate" />
    <path
       style="fill:#002812;fill-opacity:0.12481857;stroke:none;stroke-width:1;marker:none"
       inkscape:connector-curvature="0"
       d="m 58,13 v 51 h 2 l 4,-4 V 1 L 63,0 v 18 z"
       id="path3802-94"
       sodipodi:nodetypes="cccccccc" />
  </g>
  <g
     id="g1235">
    <path
       style="fill:url(#linearGradient867);fill-opacity:1;fill-rule:nonzero"
       inkscape:connector-curvature="0"
       id="path3920-52"
       d="M 7,13 H 58 V 44 H 7 Z"
       sodipodi:nodetypes="ccccc" />
    <path
       sodipodi:nodetypes="ccccc"
       inkscape:connector-curvature="0"
       id="path3982-40"
       d="m 30,13 4,4 h 2 l -4,-4 z"
       style="color:#000000;display:inline;overflow:visible;visibility:visible;fill:url(#linearGradient1132);fill-opacity:1;fill-rule:nonzero;stroke-width:1;stroke-linecap:butt;stroke-linejoin:miter;stroke-miterlimit:4;stroke-dasharray:none;stroke-dashoffset:0;stroke-opacity:1;marker:none;enable-background:accumulate" />
  </g>
  <g
     id="g1231">
    <path
       inkscape:export-ydpi="90"
       inkscape:export-xdpi="90"
       sodipodi:nodetypes="ccccccccccc"
       style="color:#000000;display:inline;overflow:visible;visibility:visible;fill:#f4ae3f;fill-opacity:1;fill-rule:nonzero;stroke-width:1;stroke-linecap:butt;stroke-linejoin:miter;stroke-miterlimit:4;stroke-dasharray:none;stroke-dashoffset:0;stroke-opacity:1;marker:none;enable-background:accumulate"
       inkscape:connector-curvature="0"
       d="m 0,13 v 50 l 1,1 h 59 l 1,-1 V 18 l -1,-1 -26,1e-6 -5,-5 L 1,12 Z"
       id="path877" />
    <path
       id="path881"
       d="m 0,13 v 50 l 1,1 h 59 l 1,-1 V 18 l -1,-1 -26,1e-6 -5,-5 L 1,12 Z"
       inkscape:connector-curvature="0"
       style="color:#000000;display:inline;overflow:visible;visibility:visible;fill:url(#linearGradient883);fill-opacity:1;fill-rule:nonzero;stroke-width:1;stroke-linecap:butt;stroke-linejoin:miter;stroke-miterlimit:4;stroke-dasharray:none;stroke-dashoffset:0;stroke-opacity:1;marker:none;enable-background:accumulate"
       sodipodi:nodetypes="ccccccccccc"
       inkscape:export-xdpi="90"
       inkscape:export-ydpi="90" />
    <path
       inkscape:export-ydpi="90"
       inkscape:export-xdpi="90"
       sodipodi:nodetypes="ccccccccccc"
       style="color:#000000;display:inline;overflow:visible;visibility:visible;fill:url(#radialGradient825);fill-opacity:1;fill-rule:nonzero;stroke-width:1;stroke-linecap:butt;stroke-linejoin:miter;stroke-miterlimit:4;stroke-dasharray:none;stroke-dashoffset:0;stroke-opacity:1;marker:none;enable-background:accumulate"
       inkscape:connector-curvature="0"
       d="m 0,13 v 50 l 1,1 h 59 l 1,-1 V 18 l -1,-1 -26,1e-6 -5,-5 L 1,12 Z"
       id="path3916-08" />
  </g>
  <path
     style="color:#000000;font-style:normal;font-variant:normal;font-weight:normal;font-stretch:normal;font-size:medium;line-height:normal;font-family:Sans;-inkscape-font-specification:Sans;text-indent:0;text-align:start;text-decoration:none;text-decoration-line:none;letter-spacing:normal;word-spacing:normal;text-transform:none;writing-mode:lr-tb;direction:ltr;baseline-shift:baseline;text-anchor:start;display:inline;overflow:visible;visibility:visible;opacity:1;vector-effect:none;fill:#3e566a;fill-opacity:0.85195935;fill-rule:nonzero;stroke:none;stroke-width:1.24999988;stroke-linecap:butt;stroke-linejoin:miter;stroke-miterlimit:4;stroke-dasharray:none;stroke-dashoffset:0;stroke-opacity:1;marker:none;paint-order:normal;enable-background:accumulate"
     d="m 5,26 v 1 19 1 H 6 8 V 45 H 7 V 28 H 24 V 45 H 11 10 v 1 3 1 h 1 17 1 V 49 38 h 1 V 51 H 15 v 2 h 16 1 V 52 37 36 h -1 -3 -1 v 1 11 H 12 v -1 h 13 1 V 46 27 26 H 25 6 Z"
     id="rect2995"
     inkscape:connector-curvature="0" />
</svg>
